X: 2064
T: Swedish Masquerade
B: kameruka bush dance
B: to learn
M:4/4
L:1/4
Q: 1/4=100
K:G
V:1 
D|:"G"G2 G3/2G/2|"G"G2 "D7"Ac|"G"B2 B3/2B/2|"G"B2 "C"ce|"G"ed Bd|"D7"dc AF|\
"G"G2 "C"G3/2G/2|1"G"GD "D7"B,D:|2"G"G G/2>G/2GB/c/||
|:"G"dBg/2e/2|"G"dBe/2d/2|"D7"cAB/2A/2|"G"G/2F/2G/2A/2B/2c/2|"G"dBg/2e/2|\
"G"dBe/2d/2|"D7"cAF|"G"G2 B/2c/2:|
|:"G"dB ge|"G"dB GB|"D7"dc Ac|"G"ed BB/2c/2|"G"dB ge|"G"dB GB|"D7"dc AF|\
"G"G3 B/2c/2:|
% abcbook-tune_id 6343f263f62bf0fb19b86dbe


% abcbook-boost 0
% abcbook-tablature 
% abcbook-transpose 
% abcbook-lastupdated 1666010254895
% abcbook-soundfonts 
% abcbook-repeats 3
% Nottingham Music Database
% Titles One title
% Transcriptions Only 1 transcription
% Movement Has some stepwise movement
% Mode major
% Key G
% Time_signature 3/4
% Time_signature 4/4
% Text Has source text
% Has_accompaniment_chords Has chords

